X:1
T:Love Alone
M:4/4
L:1/4
K:G
 B| B3 G| A A/2 c/2- c3/2 c/2| B B/2B/2-B/2 A/2 G| A c/2 B/2- B B|\
 B e e G| A A/2 c/2- c3/2 c/2| B B/2B/2-B/2 A/2 G| A F/2 E/2- E||
